X: 1148
T: Queer Fella's Schottische
B: australian traditional tunes wiki
B: kameruka bush dance
B: ralph
M:4/4
L:1/8
R: Schottische
Q: 1/4=100
K:G
V:1 
B>c|"G"d2d>e d>B (3cBA|G>D G>Bd2g>e|"C"e>f (3gfe "Am"a>g e>c|"D7"A6(3ABc|
"G"d2d>e d>B (3cBA|G>D G>Bd2g>f|"C"e>f (3gfe "D7"d>B (3cBA|"G"G2(3AGF G2B>d||
"G"g2g2g2b>a|g>f (3gfe d4|"Em"B3g/f/ "Am"e>d c>B|"D7"A6B>d|
"G"g2g2g2b>a|g>f (3gfe d2g>f|"C"e>f (3gfe "D7"d>B (3cBA|"G"G2(3AGF G4||
% abcbook-tune_id 6342d53a2e95d2ec2f4e0599


% abcbook-boost 0
% abcbook-tablature 
% abcbook-transpose 
% abcbook-lastupdated 1665486604203
% abcbook-soundfonts 
% abcbook-repeats 3
% NFF Book 2006

